lib/logotmp/nrk-logo-nrk-innlandet.svg

<svg width="114" height="24" viewBox="0 0 114 24" fill="none" xmlns="http://www.w3.org/2000/svg">
<path d="M0 17.9975V5.99862H4V17.9975H0ZM9.24381 7.90831L11.5081 17.9975H7.19917L4.49549 5.99862H6.91217C7.46635 5.99143 8.00406 6.18678 8.4245 6.54792C8.84562 6.89391 9.08495 7.37423 9.24381 7.90831ZM12 17.9975V5.99862H16V17.9975H12ZM19.0105 10.5616C18.5862 10.5658 18.1687 10.4548 17.8025 10.2405C17.4412 10.0316 17.1411 9.73149 16.9323 9.37013C16.7178 9.00386 16.6068 8.58629 16.611 8.16185C16.6061 7.73999 16.7172 7.32491 16.9323 6.96195C17.1433 6.60452 17.4431 6.30762 17.8025 6.10005C18.1689 5.88603 18.5862 5.77504 19.0105 5.77891C19.4322 5.77437 19.8471 5.88546 20.2102 6.10005C20.566 6.30944 20.8626 6.60609 21.072 6.96195C21.2868 7.32501 21.3979 7.74002 21.3933 8.16185C21.3973 8.58625 21.2863 9.00375 21.072 9.37013C20.8649 9.7299 20.5679 10.0298 20.2102 10.2405C19.8471 10.4555 19.4324 10.5666 19.0105 10.5616ZM22 17.9975V5.99862H26V17.9975H22ZM30.9737 12.5558C30.9848 12.5674 31.0693 12.7054 31.2272 12.9698C31.3851 13.2342 31.5906 13.5722 31.8439 13.9838C32.0974 14.3952 32.3649 14.8318 32.6463 15.2935C32.9278 15.7553 33.1926 16.1919 33.4408 16.6033C33.6881 17.0147 33.9697 17.4795 34.2857 17.9975H29.9598C29.6893 17.5581 29.4441 17.161 29.2245 16.8061C29.0048 16.4512 28.7713 16.0681 28.5238 15.6569C28.2758 15.246 28.0306 14.8461 27.7882 14.457C27.5458 14.0679 27.3375 13.7271 27.1633 13.4346C26.9883 13.1418 26.8671 12.9446 26.7997 12.8431C26.6325 12.591 26.5336 12.2998 26.5127 11.9981C26.5294 11.7085 26.6226 11.4285 26.7828 11.1866C26.8503 11.074 26.9743 10.874 27.1545 10.5867C27.3348 10.2994 27.546 9.95858 27.7882 9.56425C28.0304 9.16992 28.2756 8.76713 28.5238 8.3559C28.772 7.94467 29.0055 7.55876 29.2245 7.19823C29.4445 6.83808 29.6897 6.43811 29.9598 5.99834H34.2857L30.9396 11.457C30.8361 11.6191 30.7777 11.8059 30.7706 11.9981C30.7818 12.1998 30.8528 12.3938 30.9737 12.5558Z" fill="white"/>
<g clip-path="url(#clip0_5918_1850)">
<path d="M39 5.99999H40.7733V17.9911H39V5.99999ZM50.1467 9.54666C49.7188 9.31021 49.1784 9.19199 48.5253 9.19199C48.0412 9.19199 47.5599 9.26799 47.0813 9.41999C46.6028 9.57199 46.1496 9.78873 45.7218 10.0702C45.5585 10.1772 45.4009 10.2954 45.2489 10.4164V9.20888L43.5262 9.46221V17.9911H45.2489V11.5761C45.415 11.4804 45.5839 11.3904 45.764 11.3115C46.0061 11.2046 46.2481 11.1117 46.4902 11.0329C46.7323 10.9541 46.9744 10.895 47.2164 10.8555C47.4585 10.8161 47.6921 10.7964 47.9173 10.7964C48.2326 10.7964 48.5028 10.8387 48.728 10.9231C48.9532 11.0075 49.139 11.1342 49.2853 11.3031C49.4317 11.472 49.5387 11.6859 49.6062 11.9449C49.6738 12.2038 49.7076 12.5078 49.7076 12.8569V17.9911H51.4302V12.5022C51.4302 11.7366 51.3233 11.1117 51.1093 10.6275C50.8954 10.1434 50.5745 9.7831 50.1467 9.54666ZM60.6009 9.54666C60.173 9.31021 59.6326 9.19199 58.9796 9.19199C58.4954 9.19199 58.0141 9.26799 57.5356 9.41999C57.057 9.57199 56.6039 9.78873 56.176 10.0702C56.0127 10.1772 55.8551 10.2954 55.7031 10.4164V9.20888L53.9804 9.46221V17.9911H55.7031V11.5761C55.8692 11.4804 56.0381 11.3904 56.2182 11.3115C56.4603 11.2046 56.7024 11.1117 56.9444 11.0329C57.1865 10.9541 57.4286 10.895 57.6707 10.8555C57.9127 10.8161 58.1464 10.7964 58.3716 10.7964C58.6868 10.7964 58.957 10.8387 59.1822 10.9231C59.4074 11.0075 59.5932 11.1342 59.7396 11.3031C59.8859 11.472 59.9929 11.6859 60.0604 11.9449C60.128 12.2038 60.1618 12.5078 60.1618 12.8569V17.9911H61.8844V12.5022C61.8844 11.7366 61.7775 11.1117 61.5636 10.6275C61.3496 10.1434 61.0287 9.7831 60.6009 9.54666ZM67.0947 16.7498C67.044 16.7554 66.9849 16.7582 66.9173 16.7582C66.771 16.7582 66.6471 16.7357 66.5458 16.6907C66.4444 16.6456 66.36 16.5752 66.2924 16.4795C66.2249 16.3838 66.177 16.2628 66.1489 16.1164C66.1207 15.9701 66.1067 15.7955 66.1067 15.5929V5.23999L64.384 5.49332V16.3529C64.384 16.6794 64.429 16.9581 64.5191 17.1889C64.6092 17.4197 64.7387 17.6083 64.9076 17.7547C65.0764 17.901 65.2763 18.0052 65.5071 18.0671C65.7379 18.129 65.9884 18.16 66.2587 18.16C66.3938 18.16 66.5233 18.1544 66.6471 18.1431C66.771 18.1318 66.892 18.115 67.0102 18.0924C67.1284 18.0699 67.227 18.0474 67.3058 18.0249L67.4747 16.6907L67.272 16.7244C67.2044 16.7357 67.1453 16.7441 67.0947 16.7498ZM76.7467 16.9102C76.8367 16.899 76.9324 16.8764 77.0338 16.8427L76.848 17.9742C76.7917 17.9967 76.727 18.0164 76.6538 18.0333C76.5806 18.0502 76.499 18.0699 76.4089 18.0924C76.3188 18.115 76.2259 18.129 76.1302 18.1347C76.0345 18.1403 75.936 18.1431 75.8347 18.1431C75.4744 18.1431 75.1535 18.084 74.872 17.9658C74.5905 17.8475 74.371 17.6561 74.2133 17.3915C74.1289 17.2508 74.0698 17.0847 74.0304 16.8933C73.9234 17.0172 73.8136 17.1382 73.6982 17.248C73.3886 17.5407 73.0339 17.7659 72.6342 17.9235C72.2345 18.0812 71.7588 18.16 71.2071 18.16C70.6104 18.16 70.1121 18.0474 69.7124 17.8222C69.3127 17.597 69.0144 17.3015 68.8173 16.9355C68.6203 16.5696 68.5218 16.1727 68.5218 15.7449C68.5218 15.2945 68.6484 14.8807 68.9018 14.5035C69.1551 14.1264 69.5407 13.8139 70.0587 13.5662C70.5766 13.3185 71.2296 13.1721 72.0178 13.1271L73.991 12.9948V12.5726C73.991 12.2461 73.96 11.9618 73.8924 11.7197C73.8249 11.4776 73.7123 11.2778 73.5547 11.1201C73.397 10.9625 73.1803 10.8443 72.9044 10.7655C72.6286 10.6867 72.288 10.6472 71.8827 10.6472C71.6575 10.6472 71.4295 10.6557 71.1987 10.6726C70.9679 10.6895 70.7342 10.7204 70.4978 10.7655C70.2613 10.8105 70.0164 10.8668 69.7631 10.9344C69.5098 11.0019 69.2424 11.0864 68.9609 11.1877L69.1636 9.75214C69.445 9.63955 69.7406 9.54103 70.0502 9.45658C70.3598 9.37214 70.6892 9.3074 71.0382 9.26236C71.3873 9.21732 71.7419 9.1948 72.1022 9.1948C72.5976 9.1948 73.0424 9.23984 73.4364 9.32992C73.8305 9.41999 74.1711 9.54947 74.4582 9.71836C74.7453 9.88725 74.979 10.0955 75.1591 10.3432C75.3393 10.591 75.4744 10.8781 75.5644 11.2046C75.6545 11.5311 75.6996 11.8914 75.6996 12.2855L75.6658 15.7646C75.6545 16.1812 75.7164 16.4795 75.8516 16.6597C75.9867 16.8398 76.2062 16.9299 76.5102 16.9299C76.5778 16.9299 76.6566 16.9243 76.7467 16.913V16.9102ZM73.9797 15.8997L73.9881 14.2249H72.5104C71.9587 14.2249 71.5196 14.2699 71.193 14.36C70.8665 14.4501 70.6301 14.5908 70.4837 14.7822C70.3373 14.9736 70.2641 15.2382 70.2641 15.576C70.2641 15.835 70.3204 16.0573 70.433 16.2431C70.5456 16.4289 70.7117 16.5724 70.9313 16.6738C71.1508 16.7751 71.4182 16.8258 71.7335 16.8258C71.9812 16.8258 72.2204 16.8032 72.4513 16.7582C72.6821 16.7132 72.9016 16.64 73.1099 16.5387C73.3182 16.4373 73.5153 16.3135 73.701 16.1671C73.7996 16.0883 73.8924 15.9982 73.9825 15.9025L73.9797 15.8997ZM85.2587 9.54384C84.8308 9.3074 84.2904 9.18918 83.6373 9.18918C83.1532 9.18918 82.6718 9.26518 82.1933 9.41718C81.7148 9.56918 81.2616 9.78592 80.8338 10.0674C80.6705 10.1744 80.5129 10.2926 80.3609 10.4136V9.20606L78.6382 9.4594V17.9883H80.3609V11.5733C80.527 11.4776 80.6959 11.3875 80.876 11.3087C81.1181 11.2018 81.3601 11.1089 81.6022 11.0301C81.8443 10.9512 82.0864 10.8921 82.3284 10.8527C82.5705 10.8133 82.8041 10.7936 83.0293 10.7936C83.3446 10.7936 83.6148 10.8358 83.84 10.9203C84.0652 11.0047 84.251 11.1314 84.3973 11.3003C84.5437 11.4692 84.6507 11.6831 84.7182 11.9421C84.7858 12.201 84.8196 12.505 84.8196 12.8541V17.9883H86.5422V12.4994C86.5422 11.7338 86.4353 11.1089 86.2213 10.6247C86.0074 10.1406 85.6865 9.78029 85.2587 9.54384ZM95.0036 5.49332L96.7262 5.25688V17.9911H95.3244L95.1133 17.2114C94.9867 17.3043 94.86 17.3915 94.7333 17.4675C94.3505 17.704 93.9593 17.8785 93.5596 17.9911C93.1599 18.1037 92.7348 18.16 92.2844 18.16C91.5076 18.16 90.8404 17.9883 90.2831 17.6449C89.7258 17.3015 89.2979 16.8145 88.9996 16.184C88.7012 15.5535 88.552 14.8047 88.552 13.9378C88.552 12.9244 88.749 12.0659 89.1431 11.3622C89.5372 10.6585 90.0579 10.1209 90.7053 9.74932C91.3527 9.37777 92.0536 9.19199 92.808 9.19199C93.2359 9.19199 93.6271 9.22858 93.9818 9.30177C94.3364 9.37495 94.6601 9.46784 94.9529 9.58043C94.9698 9.58606 94.9867 9.59451 95.0036 9.60295V5.49332ZM95.0036 16.1024V10.8978C94.9163 10.8668 94.8234 10.8302 94.7418 10.8049C94.4772 10.7204 94.2154 10.6585 93.9564 10.6191C93.6975 10.5797 93.4273 10.56 93.1458 10.56C92.5603 10.56 92.0564 10.681 91.6342 10.9231C91.212 11.1652 90.8883 11.5198 90.6631 11.9871C90.4379 12.4544 90.3253 13.037 90.3253 13.7351C90.3253 14.4332 90.4267 14.9933 90.6293 15.4493C90.832 15.9053 91.1247 16.2431 91.5076 16.4627C91.8904 16.6822 92.352 16.792 92.8924 16.792C93.2527 16.792 93.6553 16.7104 94.1 16.5471C94.3843 16.443 94.6855 16.291 95.0036 16.1024ZM106.598 12.0124C106.739 12.6204 106.769 13.3185 106.691 14.1067H100.588C100.611 14.5373 100.67 14.9089 100.771 15.2213C100.901 15.6154 101.092 15.9278 101.345 16.1587C101.599 16.3895 101.911 16.5527 102.283 16.6484C102.654 16.7441 103.093 16.792 103.6 16.792C103.848 16.792 104.095 16.7779 104.343 16.7498C104.591 16.7216 104.833 16.6766 105.069 16.6147C105.306 16.5527 105.534 16.4824 105.753 16.4035C105.973 16.3247 106.19 16.2459 106.404 16.1671L106.285 17.4675C105.981 17.6252 105.677 17.7547 105.373 17.856C105.069 17.9573 104.746 18.0333 104.402 18.084C104.059 18.1347 103.662 18.16 103.212 18.16C102.266 18.16 101.466 17.9939 100.813 17.6618C100.16 17.3296 99.6677 16.8398 99.3356 16.1924C99.0034 15.545 98.8373 14.7597 98.8373 13.8364C98.8373 13.1384 98.9302 12.505 99.116 11.9364C99.3018 11.3678 99.572 10.8809 99.9267 10.4755C100.281 10.0702 100.712 9.75495 101.219 9.52977C101.725 9.30458 102.3 9.19199 102.941 9.19199C103.583 9.19199 104.155 9.29895 104.656 9.51288C105.157 9.72681 105.57 10.0449 105.897 10.4671C106.223 10.8893 106.457 11.4044 106.598 12.0124ZM100.839 11.9195C100.735 12.1954 100.667 12.5304 100.625 12.9075H105.067C105.067 12.5698 105.027 12.2517 104.943 11.9618C104.813 11.5114 104.585 11.1595 104.259 10.9062C103.932 10.6529 103.499 10.5262 102.958 10.5262C102.418 10.5262 102.001 10.6416 101.641 10.8724C101.281 11.1032 101.013 11.4523 100.839 11.9195ZM113.514 16.5809C113.435 16.5978 113.348 16.6147 113.252 16.6315C113.156 16.6484 113.061 16.6653 112.965 16.6822C112.869 16.6991 112.776 16.7104 112.686 16.716C112.596 16.7216 112.512 16.7244 112.433 16.7244C112.14 16.7244 111.89 16.6738 111.681 16.5724C111.473 16.4711 111.313 16.3219 111.2 16.1249C111.087 15.9278 111.031 15.6886 111.031 15.4071V10.7289H113.412L113.598 9.37777H111.031V6.70932L109.308 7.31732V9.37777H108.008L107.822 10.7289H109.308V15.7618C109.308 16.1446 109.359 16.4739 109.46 16.7498C109.562 17.0256 109.694 17.2536 109.857 17.4338C110.021 17.6139 110.212 17.7547 110.432 17.856C110.651 17.9573 110.885 18.0305 111.132 18.0755C111.38 18.1206 111.622 18.1431 111.859 18.1431C112.039 18.1431 112.216 18.1375 112.391 18.1262C112.565 18.115 112.726 18.0981 112.872 18.0755C113.018 18.053 113.156 18.0277 113.286 17.9995C113.415 17.9714 113.525 17.9461 113.615 17.9235L113.716 16.5218C113.66 16.5443 113.593 16.564 113.514 16.5809Z" fill="white"/>
</g>
<defs>
<clipPath id="clip0_5918_1850">
<rect width="74.7164" height="12.92" fill="white" transform="translate(39 5.23999)"/>
</clipPath>
</defs>
</svg>

<svg xmlns="http://www.w3.org/2000/svg" viewBox="0 0 114 24"><path fill="#fff" d="M0 17.997V6h4v11.998H0ZM9.244 7.908l2.264 10.09H7.2l-2.704-12h2.417a2.276 2.276 0 0 1 1.513.55c.42.346.66.826.819 1.36ZM12 17.998v-12h4v12h-4Zm7.01-7.436a2.382 2.382 0 0 1-2.4-2.4 2.301 2.301 0 0 1 .322-1.2A2.41 2.41 0 0 1 20.21 6.1c.356.21.653.506.862.862.215.363.326.778.321 1.2a2.35 2.35 0 0 1-.321 1.208 2.4 2.4 0 0 1-.862.87 2.3 2.3 0 0 1-1.2.322ZM22 17.997V6h4v11.998h-4Zm8.974-5.441c.01.011.095.15.253.414s.364.602.617 1.014a315.936 315.936 0 0 1 1.597 2.62c.247.41.529.876.845 1.393H29.96c-.27-.439-.516-.836-.736-1.19-.22-.356-.453-.739-.7-1.15-.248-.411-.493-.81-.736-1.2-.242-.39-.45-.73-.625-1.022-.175-.293-.296-.49-.363-.592a1.747 1.747 0 0 1-.287-.845c.016-.29.11-.57.27-.811.067-.113.191-.313.371-.6a182.106 182.106 0 0 0 1.37-2.23l.7-1.159.736-1.2h4.326l-3.346 5.459a1.08 1.08 0 0 0-.17.541c.012.202.083.396.204.558Z"/><g clip-path="url(#a)"><path fill="#fff" d="M39 6h1.773v11.991H39V6Zm11.147 3.547c-.428-.237-.969-.355-1.622-.355-.484 0-.965.076-1.444.228a5.485 5.485 0 0 0-1.36.65c-.162.107-.32.225-.472.346V9.21l-1.723.253v8.53h1.723v-6.416c.166-.096.335-.186.515-.264.242-.107.484-.2.726-.28a4.89 4.89 0 0 1 .726-.177c.242-.039.476-.059.701-.059.316 0 .586.043.811.127.225.085.411.211.557.38.147.169.254.383.321.642.068.259.102.563.102.912v5.134h1.722v-5.489c0-.765-.107-1.39-.32-1.875-.215-.484-.535-.844-.963-1.08Zm10.454 0c-.428-.237-.968-.355-1.621-.355-.485 0-.966.076-1.444.228a5.485 5.485 0 0 0-1.36.65c-.163.107-.32.225-.473.346V9.21l-1.723.253v8.53h1.723v-6.416c.166-.096.335-.186.515-.264.242-.107.484-.2.726-.28.242-.078.485-.137.727-.177.242-.039.475-.059.7-.059.316 0 .586.043.811.127.225.085.411.211.558.38.146.169.253.383.32.642.068.259.102.563.102.912v5.134h1.722v-5.489c0-.765-.106-1.39-.32-1.875-.214-.484-.535-.844-.963-1.08Zm6.494 7.203c-.051.005-.11.008-.178.008a.914.914 0 0 1-.371-.067.61.61 0 0 1-.254-.211.926.926 0 0 1-.143-.364 2.807 2.807 0 0 1-.042-.523V5.24l-1.723.253v10.86c0 .326.045.605.135.836.09.23.22.42.389.566.168.146.368.25.6.312.23.062.48.093.75.093a3.742 3.742 0 0 0 1.047-.135l.17-1.334-.203.033c-.068.012-.127.02-.177.026Zm9.652.16c.09-.011.185-.034.287-.067l-.186 1.131a1.335 1.335 0 0 1-.194.06c-.073.016-.155.036-.245.058-.09.023-.183.037-.279.043a5.06 5.06 0 0 1-.295.008c-.36 0-.681-.059-.963-.177a1.364 1.364 0 0 1-.659-.575 1.58 1.58 0 0 1-.183-.498 4.995 4.995 0 0 1-.332.355c-.31.293-.664.518-1.064.675-.4.158-.875.237-1.427.237-.597 0-1.095-.113-1.495-.338-.4-.225-.698-.52-.895-.886a2.472 2.472 0 0 1-.295-1.191c0-.45.126-.864.38-1.241.253-.378.639-.69 1.157-.938s1.17-.394 1.959-.439l1.973-.132v-.422c0-.327-.031-.611-.099-.853a1.337 1.337 0 0 0-.337-.6c-.158-.157-.375-.276-.65-.354a3.774 3.774 0 0 0-1.022-.119c-.225 0-.453.009-.684.026-.231.017-.465.047-.701.092a10.372 10.372 0 0 0-1.537.423l.203-1.436a8.18 8.18 0 0 1 .886-.295c.31-.085.64-.15.988-.195.35-.045.704-.067 1.064-.067.496 0 .94.045 1.334.135.394.09.735.22 1.022.388.287.17.521.377.701.625.18.248.315.535.405.862.09.326.136.686.136 1.08l-.034 3.48c-.011.416.05.715.186.895.135.18.354.27.658.27.068 0 .147-.006.237-.017v-.003ZM73.98 15.9l.008-1.675H72.51c-.551 0-.99.045-1.317.135-.326.09-.563.23-.71.422-.146.192-.219.456-.219.794 0 .259.056.481.169.667.113.186.279.33.498.43.22.102.487.153.803.153.247 0 .486-.023.717-.068.231-.045.45-.118.659-.22a2.746 2.746 0 0 0 .873-.636l-.003-.002Zm11.279-6.356c-.428-.237-.969-.355-1.622-.355-.484 0-.965.076-1.444.228a5.484 5.484 0 0 0-1.36.65c-.162.107-.32.226-.472.347V9.206l-1.723.253v8.53h1.723v-6.416a5.22 5.22 0 0 1 .515-.264c.242-.107.484-.2.726-.279.242-.079.484-.138.726-.177.242-.04.476-.06.701-.06.316 0 .586.043.811.127.225.085.411.211.557.38.147.17.254.383.321.642.068.259.102.563.102.912v5.134h1.722V12.5c0-.765-.107-1.39-.32-1.874-.215-.484-.535-.845-.963-1.081Zm9.745-4.05 1.722-.237V17.99h-1.402l-.21-.78c-.127.093-.254.18-.38.257a4.607 4.607 0 0 1-1.174.523c-.4.113-.825.169-1.276.169-.776 0-1.444-.172-2-.515A3.353 3.353 0 0 1 89 16.184c-.299-.63-.448-1.38-.448-2.246 0-1.014.197-1.872.591-2.576.394-.704.915-1.241 1.562-1.613a4.153 4.153 0 0 1 2.103-.557 5.818 5.818 0 0 1 2.145.388c.017.006.034.015.05.023v-4.11Zm0 10.608v-5.204c-.088-.031-.18-.068-.262-.093a5.104 5.104 0 0 0-1.596-.245c-.586 0-1.09.121-1.512.363a2.382 2.382 0 0 0-.97 1.064c-.226.467-.339 1.05-.339 1.748s.102 1.258.304 1.714c.203.456.496.794.879 1.014.382.22.844.329 1.384.329.36 0 .763-.082 1.208-.245a5.55 5.55 0 0 0 .904-.445Zm11.594-4.09c.141.608.171 1.306.093 2.095h-6.103c.023.43.082.802.183 1.114.13.394.321.707.574.938.254.23.566.394.938.49.371.095.81.143 1.317.143.248 0 .495-.014.743-.042.248-.028.49-.073.726-.135.237-.062.465-.133.684-.211.22-.08.437-.158.651-.237l-.119 1.3a6.32 6.32 0 0 1-.912.389 5.686 5.686 0 0 1-.971.228 8.23 8.23 0 0 1-1.19.076c-.946 0-1.746-.166-2.399-.498a3.302 3.302 0 0 1-1.477-1.47c-.333-.647-.499-1.432-.499-2.356 0-.698.093-1.331.279-1.9a4.14 4.14 0 0 1 .81-1.46c.355-.406.786-.721 1.293-.946.506-.225 1.081-.338 1.722-.338.642 0 1.214.107 1.715.32.501.215.914.533 1.241.955.326.422.56.937.701 1.545Zm-5.759-.093c-.104.276-.172.611-.214.989h4.442c0-.338-.04-.656-.124-.946-.13-.45-.358-.803-.684-1.056-.327-.253-.76-.38-1.301-.38-.54 0-.957.116-1.317.346-.36.231-.628.58-.802 1.047Zm12.675 4.662a7.13 7.13 0 0 1-.262.05l-.287.051a2.51 2.51 0 0 1-.279.034 4.08 4.08 0 0 1-.253.008c-.293 0-.543-.05-.752-.152a1.093 1.093 0 0 1-.481-.447 1.421 1.421 0 0 1-.169-.718V10.73h2.381l.186-1.351h-2.567V6.709l-1.723.608v2.06h-1.3l-.186 1.352h1.486v5.033c0 .383.051.712.152.988.102.276.234.504.397.684.164.18.355.32.575.422a2.9 2.9 0 0 0 .7.22c.248.045.49.067.727.067.18 0 .357-.006.532-.017.174-.011.335-.028.481-.05.146-.023.284-.048.414-.076.129-.029.239-.054.329-.076l.101-1.402a1.243 1.243 0 0 1-.202.059Z"/></g><defs><clipPath id="a"><path fill="#fff" d="M39 5.24h74.716v12.92H39z"/></clipPath></defs></svg>
